src/16/actions/view-time-schedule-calculus.svg

<svg xmlns="http://www.w3.org/2000/svg" width="16" height="16" viewBox="0 0 16 16">
 <defs>
  <style id="current-color-scheme" type="text/css">
   .ColorScheme-Text { color:#565656; } .ColorScheme-Highlight { color:#5294e2; }
  </style>
 </defs>
 <path style="fill:currentColor" class="ColorScheme-Text" d="M 3 1 C 0.75 1 1 3 1 3 L 1 15 L 9 15 L 9 13 L 3 13 L 3 6 L 7 6 L 7 4 L 3 4 L 3 3 L 13 3 L 13 7 L 7 7 L 7 9 L 15 9 L 15 3 C 15 1 13 1 13 1 L 3 1 z M 5 10 L 5 12 L 9 12 L 9 10 L 5 10 z M 9.9921875 10 L 9.9921875 16 L 14.992188 16 L 14.992188 10 L 9.9921875 10 z M 10.992188 12 L 11.992188 12 L 11.992188 13 L 10.992188 13 L 10.992188 12 z M 12.992188 12 L 13.992188 12 L 13.992188 13 L 12.992188 13 L 12.992188 12 z M 10.992188 14 L 11.992188 14 L 11.992188 15 L 10.992188 15 L 10.992188 14 z M 12.992188 14 L 13.992188 14 L 13.992188 15 L 12.992188 15 L 12.992188 14 z"/>
</svg>

<svg xmlns="http://www.w3.org/2000/svg" width="16" height="16"><defs><style id="current-color-scheme" type="text/css"></style></defs><path d="M3 1C.75 1 1 3 1 3v12h8v-2H3V6h4V4H3V3h10v4H7v2h8V3c0-2-2-2-2-2H3zm2 9v2h4v-2H5zm4.992 0v6h5v-6h-5zm1 2h1v1h-1v-1zm2 0h1v1h-1v-1zm-2 2h1v1h-1v-1zm2 0h1v1h-1v-1z" fill="currentColor" color="#565656"/></svg>
